Numix/22/status/gpm-keyboard-060.svg

<!-- Created with Inkscape (http://www.inkscape.org/) -->
<svg xmlns="http://www.w3.org/2000/svg" viewBox="0 0 22 22">
 <path d="m 7 1 c -1.108 0 -2 0.811 -2 1.818 l 0 16.363 c 0 1.01 0.892 1.818 2 1.818 l 8 0 c 1.108 0 2 -0.811 2 -1.818 l 0 -16.363 c 0 -1.01 -0.892 -1.818 -2 -1.818 l -8 0 z m 0.5 2 l 3 0 l 1 0 c 0.277 0 0.5 0.223 0.5 0.5 l 0 1 l 0 2 c 0 0.277 -0.223 0.5 -0.5 0.5 l -1 0 c -0.277 0 -0.5 -0.223 -0.5 -0.5 l 0 -1.5 l -2.5 0 c -0.277 0 -0.5 -0.223 -0.5 -0.5 l 0 -1 c 0 -0.277 0.223 -0.5 0.5 -0.5 z m 6 0 l 1 0 c 0.277 0 0.5 0.223 0.5 0.5 l 0 1 c 0 0.277 -0.223 0.5 -0.5 0.5 l -1 0 c -0.277 0 -0.5 -0.223 -0.5 -0.5 l 0 -1 c 0 -0.277 0.223 -0.5 0.5 -0.5 z m -6 3 l 1 0 c 0.277 0 0.5 0.223 0.5 0.5 l 0 1 c 0 0.277 -0.223 0.5 -0.5 0.5 l -1 0 c -0.277 0 -0.5 -0.223 -0.5 -0.5 l 0 -1 c 0 -0.277 0.223 -0.5 0.5 -0.5 z m 6 0 l 1 0 c 0.277 0 0.5 0.223 0.5 0.5 l 0 9 c 0 0.277 -0.223 0.5 -0.5 0.5 l -1 0 c -0.277 0 -0.5 -0.223 -0.5 -0.5 l 0 -9 c 0 -0.277 0.223 -0.5 0.5 -0.5 z m -3 2 l 1 0 c 0.277 0 0.5 0.223 0.5 0.5 l 0 1 c 0 0.277 -0.223 0.5 -0.5 0.5 l -1 0 c -0.277 0 -0.5 -0.223 -0.5 -0.5 l 0 -1 c 0 -0.277 0.223 -0.5 0.5 -0.5 z m -3 1 l 1 0 c 0.277 0 0.5 0.223 0.5 0.5 l 0 1 c 0 0.277 -0.223 0.5 -0.5 0.5 l -1 0 c -0.277 0 -0.5 -0.223 -0.5 -0.5 l 0 -1 c 0 -0.277 0.223 -0.5 0.5 -0.5 z m 3 2 l 1 0 c 0.277 0 0.5 0.223 0.5 0.5 l 0 1 c 0 0.277 -0.223 0.5 -0.5 0.5 l -1 0 c -0.277 0 -0.5 -0.223 -0.5 -0.5 l 0 -1 c 0 -0.277 0.223 -0.5 0.5 -0.5 z m -3 1 l 1 0 c 0.277 0 0.5 0.223 0.5 0.5 l 0 1 c 0 0.277 -0.223 0.5 -0.5 0.5 l -1 0 c -0.277 0 -0.5 -0.223 -0.5 -0.5 l 0 -1 c 0 -0.277 0.223 -0.5 0.5 -0.5 z m 3 2 l 1 0 c 0.277 0 0.5 0.223 0.5 0.5 l 0 1 c 0 0.277 -0.223 0.5 -0.5 0.5 l -1 0 c -0.277 0 -0.5 -0.223 -0.5 -0.5 l 0 -1 c 0 -0.277 0.223 -0.5 0.5 -0.5 z m -3 1 l 1 0 c 0.277 0 0.5 0.223 0.5 0.5 l 0 3 c 0 0.277 -0.223 0.5 -0.5 0.5 l -1 0 c -0.277 0 -0.5 -0.223 -0.5 -0.5 l 0 -3 c 0 -0.277 0.223 -0.5 0.5 -0.5 z m 3 2 l 1 0 c 0.277 0 0.5 0.223 0.5 0.5 l 0 1 c 0 0.277 -0.223 0.5 -0.5 0.5 l -1 0 c -0.277 0 -0.5 -0.223 -0.5 -0.5 l 0 -1 c 0 -0.277 0.223 -0.5 0.5 -0.5 z m 3 0 l 1 0 c 0.277 0 0.5 0.223 0.5 0.5 l 0 1 c 0 0.277 -0.223 0.5 -0.5 0.5 l -1 0 c -0.277 0 -0.5 -0.223 -0.5 -0.5 l 0 -1 c 0 -0.277 0.223 -0.5 0.5 -0.5 z" style="fill:#ececec;opacity:0.4;fill-opacity:1"/>
 <path d="M 5,9 5,19.181641 C 5,20.188914 5.892,21 7,21 l 8,0 c 1.108,0 2,-0.811086 2,-1.818359 L 17,9 l -2,0 0,6.5 c 0,0.277 -0.223,0.5 -0.5,0.5 l -1,0 C 13.223,16 13,15.777 13,15.5 L 13,9 12,9 12,9.5 C 12,9.777 11.777,10 11.5,10 l -1,0 C 10.223,10 10,9.777 10,9.5 L 10,9 8.5,9 C 8.777,9 9,9.223 9,9.5 l 0,1 C 9,10.777 8.777,11 8.5,11 l -1,0 C 7.223,11 7,10.777 7,10.5 l 0,-1 C 7,9.223 7.223,9 7.5,9 L 5,9 Z m 5.5,2 1,0 c 0.277,0 0.5,0.223 0.5,0.5 l 0,1 c 0,0.277 -0.223,0.5 -0.5,0.5 l -1,0 C 10.223,13 10,12.777 10,12.5 l 0,-1 C 10,11.223 10.223,11 10.5,11 Z m -3,1 1,0 C 8.777,12 9,12.223 9,12.5 l 0,1 C 9,13.777 8.777,14 8.5,14 l -1,0 C 7.223,14 7,13.777 7,13.5 l 0,-1 C 7,12.223 7.223,12 7.5,12 Z m 3,2 1,0 c 0.277,0 0.5,0.223 0.5,0.5 l 0,1 c 0,0.277 -0.223,0.5 -0.5,0.5 l -1,0 C 10.223,16 10,15.777 10,15.5 l 0,-1 C 10,14.223 10.223,14 10.5,14 Z m -3,1 1,0 C 8.777,15 9,15.223 9,15.5 l 0,3 C 9,18.777 8.777,19 8.5,19 l -1,0 C 7.223,19 7,18.777 7,18.5 l 0,-3 C 7,15.223 7.223,15 7.5,15 Z m 3,2 1,0 c 0.277,0 0.5,0.223 0.5,0.5 l 0,1 c 0,0.277 -0.223,0.5 -0.5,0.5 l -1,0 C 10.223,19 10,18.777 10,18.5 l 0,-1 C 10,17.223 10.223,17 10.5,17 Z m 3,0 1,0 c 0.277,0 0.5,0.223 0.5,0.5 l 0,1 c 0,0.277 -0.223,0.5 -0.5,0.5 l -1,0 C 13.223,19 13,18.777 13,18.5 l 0,-1 C 13,17.223 13.223,17 13.5,17 Z" style="fill:#ececec;opacity:1;fill-opacity:1"/>
</svg>

<?xml version="1.0" encoding="UTF-8" standalone="no"?>
<!-- Created with Inkscape (http://www.inkscape.org/) -->

<svg
   xmlns:dc="http://purl.org/dc/elements/1.1/"
   xmlns:cc="http://creativecommons.org/ns#"
   xmlns:rdf="http://www.w3.org/1999/02/22-rdf-syntax-ns#"
   xmlns:svg="http://www.w3.org/2000/svg"
   xmlns="http://www.w3.org/2000/svg"
   xmlns:sodipodi="http://sodipodi.sourceforge.net/DTD/sodipodi-0.dtd"
   xmlns:inkscape="http://www.inkscape.org/namespaces/inkscape"
   id="svg3014"
   height="22"
   width="22"
   version="1.1"
   inkscape:version="0.91 r"
   sodipodi:docname="xfpm-keyboard-060.svg">
  <defs
     id="defs10" />
  <sodipodi:namedview
     pagecolor="#ffffff"
     bordercolor="#666666"
     borderopacity="1"
     objecttolerance="10"
     gridtolerance="10"
     guidetolerance="10"
     inkscape:pageopacity="0"
     inkscape:pageshadow="2"
     inkscape:window-width="1366"
     inkscape:window-height="747"
     id="namedview8"
     showgrid="true"
     inkscape:zoom="15.170655"
     inkscape:cx="8.0649318"
     inkscape:cy="10.777404"
     inkscape:window-x="0"
     inkscape:window-y="21"
     inkscape:window-maximized="1"
     inkscape:current-layer="svg3014">
    <inkscape:grid
       type="xygrid"
       id="grid4141" />
  </sodipodi:namedview>
  <metadata
     id="metadata3019">
    <rdf:RDF>
      <cc:Work
         rdf:about="">
        <dc:format>image/svg+xml</dc:format>
        <dc:type
           rdf:resource="http://purl.org/dc/dcmitype/StillImage" />
        <dc:title />
      </cc:Work>
    </rdf:RDF>
  </metadata>
  <path
     style="opacity:0.4;fill:#ececec;fill-opacity:1"
     d="M 7 1 C 5.892 1 5 1.8110867 5 2.8183594 L 5 19.181641 C 5 20.188914 5.892 21 7 21 L 15 21 C 16.108 21 17 20.188914 17 19.181641 L 17 2.8183594 C 17 1.8110867 16.108 1 15 1 L 7 1 z M 7.5 3 L 10.5 3 L 11.5 3 C 11.777 3 12 3.223 12 3.5 L 12 4.5 L 12 6.5 C 12 6.777 11.777 7 11.5 7 L 10.5 7 C 10.223 7 10 6.777 10 6.5 L 10 5 L 7.5 5 C 7.223 5 7 4.777 7 4.5 L 7 3.5 C 7 3.223 7.223 3 7.5 3 z M 13.5 3 L 14.5 3 C 14.777 3 15 3.223 15 3.5 L 15 4.5 C 15 4.777 14.777 5 14.5 5 L 13.5 5 C 13.223 5 13 4.777 13 4.5 L 13 3.5 C 13 3.223 13.223 3 13.5 3 z M 7.5 6 L 8.5 6 C 8.777 6 9 6.223 9 6.5 L 9 7.5 C 9 7.777 8.777 8 8.5 8 L 7.5 8 C 7.223 8 7 7.777 7 7.5 L 7 6.5 C 7 6.223 7.223 6 7.5 6 z M 13.5 6 L 14.5 6 C 14.777 6 15 6.223 15 6.5 L 15 15.5 C 15 15.777 14.777 16 14.5 16 L 13.5 16 C 13.223 16 13 15.777 13 15.5 L 13 6.5 C 13 6.223 13.223 6 13.5 6 z M 10.5 8 L 11.5 8 C 11.777 8 12 8.223 12 8.5 L 12 9.5 C 12 9.777 11.777 10 11.5 10 L 10.5 10 C 10.223 10 10 9.777 10 9.5 L 10 8.5 C 10 8.223 10.223 8 10.5 8 z M 7.5 9 L 8.5 9 C 8.777 9 9 9.223 9 9.5 L 9 10.5 C 9 10.777 8.777 11 8.5 11 L 7.5 11 C 7.223 11 7 10.777 7 10.5 L 7 9.5 C 7 9.223 7.223 9 7.5 9 z M 10.5 11 L 11.5 11 C 11.777 11 12 11.223 12 11.5 L 12 12.5 C 12 12.777 11.777 13 11.5 13 L 10.5 13 C 10.223 13 10 12.777 10 12.5 L 10 11.5 C 10 11.223 10.223 11 10.5 11 z M 7.5 12 L 8.5 12 C 8.777 12 9 12.223 9 12.5 L 9 13.5 C 9 13.777 8.777 14 8.5 14 L 7.5 14 C 7.223 14 7 13.777 7 13.5 L 7 12.5 C 7 12.223 7.223 12 7.5 12 z M 10.5 14 L 11.5 14 C 11.777 14 12 14.223 12 14.5 L 12 15.5 C 12 15.777 11.777 16 11.5 16 L 10.5 16 C 10.223 16 10 15.777 10 15.5 L 10 14.5 C 10 14.223 10.223 14 10.5 14 z M 7.5 15 L 8.5 15 C 8.777 15 9 15.223 9 15.5 L 9 18.5 C 9 18.777 8.777 19 8.5 19 L 7.5 19 C 7.223 19 7 18.777 7 18.5 L 7 15.5 C 7 15.223 7.223 15 7.5 15 z M 10.5 17 L 11.5 17 C 11.777 17 12 17.223 12 17.5 L 12 18.5 C 12 18.777 11.777 19 11.5 19 L 10.5 19 C 10.223 19 10 18.777 10 18.5 L 10 17.5 C 10 17.223 10.223 17 10.5 17 z M 13.5 17 L 14.5 17 C 14.777 17 15 17.223 15 17.5 L 15 18.5 C 15 18.777 14.777 19 14.5 19 L 13.5 19 C 13.223 19 13 18.777 13 18.5 L 13 17.5 C 13 17.223 13.223 17 13.5 17 z "
     id="path3081-2" />
  <path
     style="opacity:1;fill:#ececec;fill-opacity:1"
     d="M 5,9 5,19.181641 C 5,20.188914 5.892,21 7,21 l 8,0 c 1.108,0 2,-0.811086 2,-1.818359 L 17,9 l -2,0 0,6.5 c 0,0.277 -0.223,0.5 -0.5,0.5 l -1,0 C 13.223,16 13,15.777 13,15.5 L 13,9 12,9 12,9.5 C 12,9.777 11.777,10 11.5,10 l -1,0 C 10.223,10 10,9.777 10,9.5 L 10,9 8.5,9 C 8.777,9 9,9.223 9,9.5 l 0,1 C 9,10.777 8.777,11 8.5,11 l -1,0 C 7.223,11 7,10.777 7,10.5 l 0,-1 C 7,9.223 7.223,9 7.5,9 L 5,9 Z m 5.5,2 1,0 c 0.277,0 0.5,0.223 0.5,0.5 l 0,1 c 0,0.277 -0.223,0.5 -0.5,0.5 l -1,0 C 10.223,13 10,12.777 10,12.5 l 0,-1 C 10,11.223 10.223,11 10.5,11 Z m -3,1 1,0 C 8.777,12 9,12.223 9,12.5 l 0,1 C 9,13.777 8.777,14 8.5,14 l -1,0 C 7.223,14 7,13.777 7,13.5 l 0,-1 C 7,12.223 7.223,12 7.5,12 Z m 3,2 1,0 c 0.277,0 0.5,0.223 0.5,0.5 l 0,1 c 0,0.277 -0.223,0.5 -0.5,0.5 l -1,0 C 10.223,16 10,15.777 10,15.5 l 0,-1 C 10,14.223 10.223,14 10.5,14 Z m -3,1 1,0 C 8.777,15 9,15.223 9,15.5 l 0,3 C 9,18.777 8.777,19 8.5,19 l -1,0 C 7.223,19 7,18.777 7,18.5 l 0,-3 C 7,15.223 7.223,15 7.5,15 Z m 3,2 1,0 c 0.277,0 0.5,0.223 0.5,0.5 l 0,1 c 0,0.277 -0.223,0.5 -0.5,0.5 l -1,0 C 10.223,19 10,18.777 10,18.5 l 0,-1 C 10,17.223 10.223,17 10.5,17 Z m 3,0 1,0 c 0.277,0 0.5,0.223 0.5,0.5 l 0,1 c 0,0.277 -0.223,0.5 -0.5,0.5 l -1,0 C 13.223,19 13,18.777 13,18.5 l 0,-1 C 13,17.223 13.223,17 13.5,17 Z"
     id="path3081-2-6"
     inkscape:connector-curvature="0" />
</svg>
